; G-Code generated by Simplify3D(R) Version 3.1.1
; nov. 11, 2016 at 6:26:53 
; Settings Summary
;   processName,Process1
;   applyToModels,Battery support only
;   profileName,0.8mm fine (modified)
;   profileVersion,2016-11-05 10:39:04
;   baseProfile,Default
;   printMaterial,PLA
;   printQuality,High
;   printExtruders,
;   extruderName,Left extruder,Right extruder
;   extruderToolheadNumber,0,1
;   extruderDiameter,0.4,0.8
;   extruderAutoWidth,0,0
;   extruderWidth,0.3,0.7
;   extrusionMultiplier,1.2,1.2
;   extruderUseRetract,1,1
;   extruderRetractionDistance,2,2
;   extruderExtraRestartDistance,2,2
;   extruderRetractionZLift,1,1
;   extruderRetractionSpeed,2400,2400
;   extruderUseCoasting,0,0
;   extruderCoastingDistance,0.2,0.2
;   extruderUseWipe,0,0
;   extruderWipeDistance,5,5
;   primaryExtruder,1
;   layerHeight,0.2
;   topSolidLayers,3
;   bottomSolidLayers,3
;   perimeterOutlines,2
;   printPerimetersInsideOut,1
;   startPointOption,2
;   startPointOriginX,0
;   startPointOriginY,0
;   startPointOriginZ,300
;   sequentialIslands,0
;   spiralVaseMode,0
;   firstLayerHeightPercentage,80
;   firstLayerWidthPercentage,100
;   firstLayerUnderspeed,0.5
;   useRaft,0
;   raftExtruder,0
;   raftLayers,2
;   raftOffset,3
;   raftSeparationDistance,0.14
;   raftInfill,85
;   disableRaftBaseLayers,0
;   useSkirt,1
;   skirtExtruder,1
;   skirtLayers,1
;   skirtOutlines,1
;   skirtOffset,4
;   usePrimePillar,0
;   primePillarExtruder,999
;   primePillarWidth,12
;   primePillarLocation,7
;   primePillarSpeedMultiplier,1
;   useOozeShield,0
;   oozeShieldExtruder,999
;   oozeShieldOffset,2
;   oozeShieldOutlines,1
;   oozeShieldSidewallShape,1
;   oozeShieldSidewallAngle,30
;   oozeShieldSpeedMultiplier,1
;   infillExtruder,1
;   internalInfillPattern,Rectilinear
;   externalInfillPattern,Rectilinear
;   infillPercentage,33
;   outlineOverlapPercentage,30
;   infillExtrusionWidthPercentage,100
;   minInfillLength,5
;   infillLayerInterval,1
;   infillAngles,45,-45
;   overlapInfillAngles,0
;   generateSupport,0
;   supportExtruder,1
;   supportInfillPercentage,40
;   supportExtraInflation,0
;   denseSupportLayers,0
;   denseSupportInfillPercentage,70
;   supportLayerInterval,1
;   supportHorizontalPartOffset,0.3
;   supportUpperSeparationLayers,1
;   supportLowerSeparationLayers,1
;   supportType,0
;   supportGridSpacing,3
;   maxOverhangAngle,45
;   supportAngles,45
;   temperatureName,Extruder 1 Temperature,Extruder 2 Temperature,Heated Bed
;   temperatureNumber,0,1,0
;   temperatureSetpointCount,1,1,1
;   temperatureSetpointLayers,1,1,1
;   temperatureSetpointTemperatures,190,190,60
;   temperatureStabilizeAtStartup,1,1,1
;   temperatureHeatedBed,0,0,1
;   temperatureRelayBetweenLayers,0,0,0
;   temperatureRelayBetweenLoops,0,0,0
;   fanLayers,1,2
;   fanSpeeds,0,100
;   blipFanToFullPower,0
;   adjustSpeedForCooling,1
;   minSpeedLayerTime,15
;   minCoolingSpeedSlowdown,20
;   increaseFanForCooling,0
;   minFanLayerTime,45
;   maxCoolingFanSpeed,100
;   increaseFanForBridging,0
;   bridgingFanSpeed,100
;   use5D,1
;   relativeEdistances,0
;   allowEaxisZeroing,1
;   independentExtruderAxes,0
;   includeM10123,0
;   stickySupport,1
;   applyToolheadOffsets,0
;   gcodeXoffset,0
;   gcodeYoffset,0
;   gcodeZoffset,0
;   overrideMachineDefinition,1
;   machineTypeOverride,0
;   strokeXoverride,220
;   strokeYoverride,200
;   strokeZoverride,150
;   originOffsetXoverride,24
;   originOffsetYoverride,-22
;   originOffsetZoverride,0
;   homeXdirOverride,-1
;   homeYdirOverride,-1
;   homeZdirOverride,1
;   flipXoverride,1
;   flipYoverride,-1
;   flipZoverride,1
;   toolheadOffsets,-27,0|28,22|0,0|0,0|0,0|0,0
;   overrideFirmwareConfiguration,1
;   firmwareTypeOverride,RepRap (Marlin/Repetier/Sprinter)
;   GPXconfigOverride,r2
;   baudRateOverride,250000
;   overridePrinterModels,0
;   printerModelsOverride
;   startingGcode,M999     ;reset temperature,G28 ; home all axes,G29 ; z min,
;   layerChangeGcode,
;   retractionGcode,
;   toolChangeGcode,
;   endingGcode,M104 S0 ; turn off extruder,M140 S0 ; turn off bed,G28 X0 ; home X axis,G28 Y0 ; home Y axis,M84 ; disable motors
;   exportFileFormat,gcode
;   celebration,0
;   celebrationSong,Random Song
;   postProcessing,
;   defaultSpeed,2400
;   outlineUnderspeed,0.8
;   solidInfillUnderspeed,0.8
;   supportUnderspeed,1
;   rapidXYspeed,4800
;   rapidZspeed,1000
;   minBridgingArea,8
;   bridgingExtraInflation,3
;   bridgingExtrusionMultiplier,1.2
;   bridgingSpeedMultiplier,0.6
;   filamentDiameter,1.75
;   filamentPricePerKg,19.87
;   filamentDensity,1.25
;   useMinPrintHeight,0
;   minPrintHeight,0
;   useMaxPrintHeight,0
;   maxPrintHeight,0
;   useDiaphragm,0
;   diaphragmLayerInterval,20
;   robustSlicing,1
;   mergeAllIntoSolid,0
;   onlyRetractWhenCrossingOutline,1
;   retractBetweenLayers,1
;   useRetractionMinTravel,1
;   retractionMinTravel,1.5
;   retractWhileWiping,0
;   onlyWipeOutlines,1
;   avoidCrossingOutline,0
;   maxMovementDetourFactor,3
;   toolChangeRetractionDistance,12
;   toolChangeExtraRestartDistance,-0.5
;   toolChangeRetractionSpeed,600
;   allowThinWallGapFill,0
;   thinWallAllowedOverlapPercentage,50
;   horizontalSizeCompensation,0
G90
M82
M106 S0
M140 S60
M190 S60
M104 S190 T0
M104 S190 T1
M109 S190 T0
M109 S190 T1
M999     ;reset temperature
G28 ; home all axes
G29 ; z min
G92 E0
G1 E-2.0000 F2400
G1 Z1.160 F1000
; layer 1, Z = 0.16
T1
; tool H0.200 W0.700
; skirt
G1 X59.703 Y39.645 F4800
G1 Z0.160 F1000
G1 E2.0000 F720
G92 E0
G1 X62.145 Y37.203 E0.2412 F1200
G1 X62.274 Y37.150 E0.2509
G1 X71.726 Y37.150 E0.9112
G1 X71.855 Y37.203 E0.9209
G1 X74.297 Y39.645 E1.1621
G1 X74.350 Y39.774 E1.1718
G1 X74.350 Y40.150 E1.1981
G1 X80.650 Y40.150 E1.6381
G1 X80.650 Y39.774 E1.6644
G1 X80.703 Y39.645 E1.6741
G1 X83.145 Y37.203 E1.9153
G1 X83.274 Y37.150 E1.9250
G1 X96.726 Y37.150 E2.8647
G1 X96.855 Y37.203 E2.8744
G1 X99.297 Y39.645 E3.1156
G1 X99.350 Y39.774 E3.1253
G1 X99.350 Y40.150 E3.1516
G1 X104.726 Y40.150 E3.5271
G1 X104.855 Y40.203 E3.5368
G1 X107.297 Y42.645 E3.7780
G1 X107.350 Y42.774 E3.7877
G1 X107.350 Y204.226 E15.0646
G1 X107.297 Y204.355 E15.0744
G1 X104.855 Y206.797 E15.3155
G1 X104.726 Y206.850 E15.3253
G1 X65.274 Y206.850 E18.0809
G1 X65.145 Y206.797 E18.0906
G1 X62.703 Y204.355 E18.3318
G1 X62.650 Y204.226 E18.3415
G1 X62.650 Y201.850 E18.5075
G1 X62.274 Y201.850 E18.5338
G1 X62.145 Y201.797 E18.5435
G1 X59.703 Y199.355 E18.7847
G1 X59.650 Y199.226 E18.7944
G1 X59.650 Y185.774 E19.7341
G1 X59.703 Y185.645 E19.7438
G1 X62.145 Y183.203 E19.9850
G1 X62.274 Y183.150 E19.9947
G1 X62.650 Y183.150 E20.0210
G1 X62.650 Y171.850 E20.8103
G1 X62.274 Y171.850 E20.8366
G1 X62.145 Y171.797 E20.8463
G1 X59.703 Y169.355 E21.0875
G1 X59.650 Y169.226 E21.0972
G1 X59.650 Y155.774 E22.0368
G1 X59.703 Y155.645 E22.0465
G1 X62.145 Y153.203 E22.2877
G1 X62.274 Y153.150 E22.2974
G1 X62.650 Y153.150 E22.3237
G1 X62.650 Y131.850 E23.8115
G1 X62.274 Y131.850 E23.8378
G1 X62.145 Y131.797 E23.8475
G1 X59.703 Y129.355 E24.0887
G1 X59.650 Y129.226 E24.0984
G1 X59.650 Y115.774 E25.0380
G1 X59.703 Y115.645 E25.0477
G1 X62.145 Y113.203 E25.2889
G1 X62.274 Y113.150 E25.2987
G1 X62.650 Y113.150 E25.3249
G1 X62.650 Y91.850 E26.8127
G1 X62.274 Y91.850 E26.8390
G1 X62.145 Y91.797 E26.8487
G1 X59.703 Y89.355 E27.0899
G1 X59.650 Y89.226 E27.0996
G1 X59.650 Y75.774 E28.0392
G1 X59.703 Y75.645 E28.0490
G1 X62.145 Y73.203 E28.2901
G1 X62.274 Y73.150 E28.2999
G1 X62.650 Y73.150 E28.3262
G1 X62.650 Y55.850 E29.5345
G1 X62.274 Y55.850 E29.5608
G1 X62.145 Y55.797 E29.5705
G1 X59.703 Y53.355 E29.8117
G1 X59.650 Y53.226 E29.8214
G1 X59.650 Y39.774 E30.7611
G1 X59.703 Y39.645 E30.7708
G92 E0
G1 E-2.0000 F2400
G1 Z1.160 F1000
; inner perimeter
G1 X65.050 Y42.550 F4800
G1 Z0.160 F1000
G1 E2.0000 F2400
G92 E0
G1 X68.950 Y42.550 E0.2724 F1080
G1 X68.950 Y45.550 E0.4819
G1 X86.050 Y45.550 E1.6763
G1 X86.050 Y42.550 E1.8858
G1 X93.950 Y42.550 E2.4376
G1 X93.950 Y45.550 E2.6472
G1 X101.950 Y45.550 E3.2059
G1 X101.950 Y201.450 E14.0950
G1 X68.050 Y201.450 E16.4628
G1 X68.050 Y196.450 E16.8120
G1 X65.050 Y196.450 E17.0215
G1 X65.050 Y188.550 E17.5733
G1 X68.050 Y188.550 E17.7829
G1 X68.050 Y166.450 E19.3265
G1 X65.050 Y166.450 E19.5360
G1 X65.050 Y158.550 E20.0878
G1 X68.050 Y158.550 E20.2973
G1 X68.050 Y126.450 E22.5394
G1 X65.050 Y126.450 E22.7489
G1 X65.050 Y118.550 E23.3007
G1 X68.050 Y118.550 E23.5103
G1 X68.050 Y86.450 E25.7523
G1 X65.050 Y86.450 E25.9619
G1 X65.050 Y78.550 E26.5136
G1 X68.050 Y78.550 E26.7232
G1 X68.050 Y50.450 E28.6859
G1 X65.050 Y50.450 E28.8954
G1 X65.050 Y42.550 E29.4472
; outer perimeter
G1 X64.350 Y41.850 F4800
G92 E0
G1 X69.650 Y41.850 E0.3702 F960
G1 X69.650 Y44.850 E0.5797
G1 X85.350 Y44.850 E1.6763
G1 X85.350 Y41.850 E1.8858
G1 X94.650 Y41.850 E2.5354
G1 X94.650 Y44.850 E2.7450
G1 X102.650 Y44.850 E3.3037
G1 X102.650 Y202.150 E14.2905
G1 X67.350 Y202.150 E16.7561
G1 X67.350 Y197.150 E17.1054
G1 X64.350 Y197.150 E17.3149
G1 X64.350 Y187.850 E17.9645
G1 X67.350 Y187.850 E18.1740
G1 X67.350 Y167.150 E19.6198
G1 X64.350 Y167.150 E19.8294
G1 X64.350 Y157.850 E20.4789
G1 X67.350 Y157.850 E20.6885
G1 X67.350 Y127.150 E22.8328
G1 X64.350 Y127.150 E23.0423
G1 X64.350 Y117.850 E23.6919
G1 X67.350 Y117.850 E23.9014
G1 X67.350 Y87.150 E26.0457
G1 X64.350 Y87.150 E26.2552
G1 X64.350 Y77.850 E26.9048
G1 X67.350 Y77.850 E27.1143
G1 X67.350 Y51.150 E28.9792
G1 X64.350 Y51.150 E29.1888
G1 X64.350 Y41.850 E29.8383
; inner perimeter
G1 X68.950 Y46.450 F4800
G92 E0
G1 X68.950 Y78.550 E2.2421 F1080
G1 X101.050 Y78.550 E4.4841
G1 X101.050 Y46.450 E6.7262
G1 X68.950 Y46.450 E8.9683
; outer perimeter
G1 X69.650 Y47.150 F4800
G92 E0
G1 X69.650 Y77.850 E2.1443 F960
G1 X100.350 Y77.850 E4.2886
G1 X100.350 Y47.150 E6.4328
G1 X69.650 Y47.150 E8.5771
; inner perimeter
G1 X68.950 Y86.450 F4800
G92 E0
G1 X68.950 Y118.550 E2.2421 F1080
G1 X101.050 Y118.550 E4.4841
G1 X101.050 Y86.450 E6.7262
G1 X68.950 Y86.450 E8.9683
; outer perimeter
G1 X69.650 Y87.150 F4800
G92 E0
G1 X69.650 Y117.850 E2.1443 F960
G1 X100.350 Y117.850 E4.2886
G1 X100.350 Y87.150 E6.4328
G1 X69.650 Y87.150 E8.5771
; inner perimeter
G1 X68.950 Y126.450 F4800
G92 E0
G1 X68.950 Y158.550 E2.2421 F1080
G1 X101.050 Y158.550 E4.4841
G1 X101.050 Y126.450 E6.7262
G1 X68.950 Y126.450 E8.9683
; outer perimeter
G1 X69.650 Y127.150 F4800
G92 E0
G1 X69.650 Y157.850 E2.1443 F960
G1 X100.350 Y157.850 E4.2886
G1 X100.350 Y127.150 E6.4328
G1 X69.650 Y127.150 E8.5771
; inner perimeter
G1 X68.950 Y166.450 F4800
G92 E0
G1 X68.950 Y200.550 E2.3818 F1080
G1 X101.050 Y200.550 E4.6238
G1 X101.050 Y166.450 E7.0056
G1 X68.950 Y166.450 E9.2476
; outer perimeter
G1 X69.650 Y167.150 F4800
G92 E0
G1 X69.650 Y199.850 E2.2840 F960
G1 X100.350 Y199.850 E4.4283
G1 X100.350 Y167.150 E6.7122
G1 X69.650 Y167.150 E8.8565
; solid layer
G1 X65.540 Y165.887 F4800
G92 E0
G1 X65.613 Y165.960 E0.0072 F960
G1 X66.603 Y165.960 E0.0764
G1 X65.540 Y164.897 E0.1814
G1 X65.540 Y163.907 E0.2506
G1 X67.593 Y165.960 E0.4534
G1 X68.583 Y165.960 E0.5225
G1 X65.540 Y162.917 E0.8231
G1 X65.540 Y161.927 E0.8922
G1 X69.573 Y165.960 E1.2906
G1 X70.563 Y165.960 E1.3598
G1 X65.540 Y160.937 E1.8559
G1 X65.540 Y159.947 E1.9251
G1 X71.553 Y165.960 E2.5190
G1 X72.543 Y165.960 E2.5882
G1 X65.623 Y159.040 E3.2717
G1 X66.613 Y159.040 E3.3409
G1 X73.533 Y165.960 E4.0244
G1 X74.523 Y165.960 E4.0935
G1 X67.603 Y159.040 E4.7771
G1 X68.593 Y159.040 E4.8462
G1 X75.513 Y165.960 E5.5298
G1 X76.503 Y165.960 E5.5989
G1 X69.583 Y159.040 E6.2825
G1 X70.573 Y159.040 E6.3516
G1 X77.493 Y165.960 E7.0351
G1 X78.483 Y165.960 E7.1043
G1 X71.563 Y159.040 E7.7878
G1 X72.553 Y159.040 E7.8570
G1 X79.473 Y165.960 E8.5405
G1 X80.463 Y165.960 E8.6097
G1 X73.543 Y159.040 E9.2932
G1 X74.532 Y159.040 E9.3623
G1 X81.452 Y165.960 E10.0459
G1 X82.442 Y165.960 E10.1150
G1 X75.522 Y159.040 E10.7986
G1 X76.512 Y159.040 E10.8677
G1 X83.432 Y165.960 E11.5512
G1 X84.422 Y165.960 E11.6204
G1 X77.502 Y159.040 E12.3039
G1 X78.492 Y159.040 E12.3731
G1 X85.412 Y165.960 E13.0566
G1 X86.402 Y165.960 E13.1258
G1 X79.482 Y159.040 E13.8093
G1 X80.472 Y159.040 E13.8784
G1 X87.392 Y165.960 E14.5620
G1 X88.382 Y165.960 E14.6311
G1 X81.462 Y159.040 E15.3147
G1 X82.452 Y159.040 E15.3838
G1 X89.372 Y165.960 E16.0674
G1 X90.362 Y165.960 E16.1365
G1 X83.442 Y159.040 E16.8200
G1 X84.432 Y159.040 E16.8892
G1 X91.352 Y165.960 E17.5727
G1 X92.342 Y165.960 E17.6419
G1 X85.422 Y159.040 E18.3254
G1 X86.412 Y159.040 E18.3946
G1 X93.332 Y165.960 E19.0781
G1 X94.322 Y165.960 E19.1472
G1 X87.402 Y159.040 E19.8308
G1 X88.392 Y159.040 E19.8999
G1 X95.312 Y165.960 E20.5835
G1 X96.302 Y165.960 E20.6526
G1 X89.382 Y159.040 E21.3362
G1 X90.372 Y159.040 E21.4053
G1 X97.292 Y165.960 E22.0888
G1 X98.282 Y165.960 E22.1580
G1 X91.362 Y159.040 E22.8415
G1 X92.352 Y159.040 E22.9107
G1 X99.272 Y165.960 E23.5942
G1 X100.262 Y165.960 E23.6634
G1 X93.342 Y159.040 E24.3469
G1 X94.331 Y159.040 E24.4160
G1 X101.251 Y165.960 E25.0996
G1 X101.460 Y165.960 E25.1141
G1 X101.460 Y165.179 E25.1687
G1 X95.321 Y159.040 E25.7751
G1 X96.311 Y159.040 E25.8442
G1 X101.460 Y164.189 E26.3528
G1 X101.460 Y163.199 E26.4219
G1 X97.301 Y159.040 E26.8327
G1 X98.291 Y159.040 E26.9019
G1 X101.460 Y162.209 E27.2149
G1 X101.460 Y161.219 E27.2840
G1 X99.281 Y159.040 E27.4992
G1 X100.271 Y159.040 E27.5684
G1 X101.460 Y160.229 E27.6858
G1 X101.460 Y159.239 E27.7549
G1 X101.261 Y159.040 E27.7746
G1 X100.859 Y119.040 F4800
G92 E0
G1 X101.460 Y119.641 E0.0594 F960
G1 X101.460 Y120.631 E0.1285
G1 X99.869 Y119.040 E0.2856
G1 X98.879 Y119.040 E0.3548
G1 X101.460 Y121.621 E0.6097
G1 X101.460 Y122.611 E0.6789
G1 X97.889 Y119.040 E1.0316
G1 X96.899 Y119.040 E1.1007
G1 X101.460 Y123.601 E1.5512
G1 X101.460 Y124.591 E1.6203
G1 X95.909 Y119.040 E2.1686
G1 X94.919 Y119.040 E2.2378
G1 X101.460 Y125.581 E2.8838
G1 X101.460 Y125.960 E2.9103
G1 X100.849 Y125.960 E2.9530
G1 X93.929 Y119.040 E3.6365
G1 X92.940 Y119.040 E3.7057
G1 X99.860 Y125.960 E4.3892
G1 X98.870 Y125.960 E4.4583
G1 X91.950 Y119.040 E5.1419
G1 X90.960 Y119.040 E5.2110
G1 X97.880 Y125.960 E5.8946
G1 X96.890 Y125.960 E5.9637
G1 X89.970 Y119.040 E6.6473
G1 X88.980 Y119.040 E6.7164
G1 X95.900 Y125.960 E7.3999
G1 X94.910 Y125.960 E7.4691
G1 X87.990 Y119.040 E8.1526
G1 X87.000 Y119.040 E8.2218
G1 X93.920 Y125.960 E8.9053
G1 X92.930 Y125.960 E8.9745
G1 X86.010 Y119.040 E9.6580
G1 X85.020 Y119.040 E9.7271
G1 X91.940 Y125.960 E10.4107
G1 X90.950 Y125.960 E10.4798
G1 X84.030 Y119.040 E11.1634
G1 X83.040 Y119.040 E11.2325
G1 X89.960 Y125.960 E11.9161
G1 X88.970 Y125.960 E11.9852
G1 X82.050 Y119.040 E12.6687
G1 X81.060 Y119.040 E12.7379
G1 X87.980 Y125.960 E13.4214
G1 X86.990 Y125.960 E13.4906
G1 X80.070 Y119.040 E14.1741
G1 X79.080 Y119.040 E14.2433
G1 X86.000 Y125.960 E14.9268
G1 X85.010 Y125.960 E14.9959
G1 X78.090 Y119.040 E15.6795
G1 X77.100 Y119.040 E15.7486
G1 X84.020 Y125.960 E16.4322
G1 X83.030 Y125.960 E16.5013
G1 X76.110 Y119.040 E17.1848
G1 X75.120 Y119.040 E17.2540
G1 X82.040 Y125.960 E17.9375
G1 X81.050 Y125.960 E18.0067
G1 X74.130 Y119.040 E18.6902
G1 X73.141 Y119.040 E18.7594
G1 X80.061 Y125.960 E19.4429
G1 X79.071 Y125.960 E19.5120
G1 X72.151 Y119.040 E20.1956
G1 X71.161 Y119.040 E20.2647
G1 X78.081 Y125.960 E20.9483
G1 X77.091 Y125.960 E21.0174
G1 X70.171 Y119.040 E21.7010
G1 X69.181 Y119.040 E21.7701
G1 X76.101 Y125.960 E22.4536
G1 X75.111 Y125.960 E22.5228
G1 X68.191 Y119.040 E23.2063
G1 X67.201 Y119.040 E23.2755
G1 X74.121 Y125.960 E23.9590
