; G-Code generated by Simplify3D(R) Version 3.1.1
; nov. 11, 2016 at 1:05:51 
; Settings Summary
;   processName,Process1
;   applyToModels,Internal supports
;   profileName,0.8mm fine (modified)
;   profileVersion,2016-11-05 10:39:04
;   baseProfile,Default
;   printMaterial,PLA
;   printQuality,High
;   printExtruders,
;   extruderName,Left extruder,Right extruder
;   extruderToolheadNumber,0,1
;   extruderDiameter,0.4,0.8
;   extruderAutoWidth,0,0
;   extruderWidth,0.3,0.7
;   extrusionMultiplier,1.2,1.2
;   extruderUseRetract,1,1
;   extruderRetractionDistance,2,2
;   extruderExtraRestartDistance,2,2
;   extruderRetractionZLift,1,1
;   extruderRetractionSpeed,2400,2400
;   extruderUseCoasting,0,0
;   extruderCoastingDistance,0.2,0.2
;   extruderUseWipe,0,0
;   extruderWipeDistance,5,5
;   primaryExtruder,1
;   layerHeight,0.2
;   topSolidLayers,3
;   bottomSolidLayers,3
;   perimeterOutlines,2
;   printPerimetersInsideOut,1
;   startPointOption,2
;   startPointOriginX,0
;   startPointOriginY,0
;   startPointOriginZ,300
;   sequentialIslands,0
;   spiralVaseMode,0
;   firstLayerHeightPercentage,80
;   firstLayerWidthPercentage,100
;   firstLayerUnderspeed,0.5
;   useRaft,0
;   raftExtruder,0
;   raftLayers,2
;   raftOffset,3
;   raftSeparationDistance,0.14
;   raftInfill,85
;   disableRaftBaseLayers,0
;   useSkirt,1
;   skirtExtruder,1
;   skirtLayers,1
;   skirtOutlines,1
;   skirtOffset,4
;   usePrimePillar,0
;   primePillarExtruder,999
;   primePillarWidth,12
;   primePillarLocation,7
;   primePillarSpeedMultiplier,1
;   useOozeShield,0
;   oozeShieldExtruder,999
;   oozeShieldOffset,2
;   oozeShieldOutlines,1
;   oozeShieldSidewallShape,1
;   oozeShieldSidewallAngle,30
;   oozeShieldSpeedMultiplier,1
;   infillExtruder,1
;   internalInfillPattern,Rectilinear
;   externalInfillPattern,Rectilinear
;   infillPercentage,33
;   outlineOverlapPercentage,30
;   infillExtrusionWidthPercentage,100
;   minInfillLength,5
;   infillLayerInterval,1
;   infillAngles,45,-45
;   overlapInfillAngles,0
;   generateSupport,0
;   supportExtruder,1
;   supportInfillPercentage,40
;   supportExtraInflation,0
;   denseSupportLayers,0
;   denseSupportInfillPercentage,70
;   supportLayerInterval,1
;   supportHorizontalPartOffset,0.3
;   supportUpperSeparationLayers,1
;   supportLowerSeparationLayers,1
;   supportType,0
;   supportGridSpacing,3
;   maxOverhangAngle,45
;   supportAngles,45
;   temperatureName,Extruder 1 Temperature,Extruder 2 Temperature,Heated Bed
;   temperatureNumber,0,1,0
;   temperatureSetpointCount,1,1,1
;   temperatureSetpointLayers,1,1,1
;   temperatureSetpointTemperatures,190,190,60
;   temperatureStabilizeAtStartup,1,1,1
;   temperatureHeatedBed,0,0,1
;   temperatureRelayBetweenLayers,0,0,0
;   temperatureRelayBetweenLoops,0,0,0
;   fanLayers,1,2
;   fanSpeeds,0,100
;   blipFanToFullPower,0
;   adjustSpeedForCooling,1
;   minSpeedLayerTime,15
;   minCoolingSpeedSlowdown,20
;   increaseFanForCooling,0
;   minFanLayerTime,45
;   maxCoolingFanSpeed,100
;   increaseFanForBridging,0
;   bridgingFanSpeed,100
;   use5D,1
;   relativeEdistances,0
;   allowEaxisZeroing,1
;   independentExtruderAxes,0
;   includeM10123,0
;   stickySupport,1
;   applyToolheadOffsets,0
;   gcodeXoffset,0
;   gcodeYoffset,0
;   gcodeZoffset,0
;   overrideMachineDefinition,1
;   machineTypeOverride,0
;   strokeXoverride,220
;   strokeYoverride,200
;   strokeZoverride,150
;   originOffsetXoverride,24
;   originOffsetYoverride,-22
;   originOffsetZoverride,0
;   homeXdirOverride,-1
;   homeYdirOverride,-1
;   homeZdirOverride,1
;   flipXoverride,1
;   flipYoverride,-1
;   flipZoverride,1
;   toolheadOffsets,-27,0|28,22|0,0|0,0|0,0|0,0
;   overrideFirmwareConfiguration,1
;   firmwareTypeOverride,RepRap (Marlin/Repetier/Sprinter)
;   GPXconfigOverride,r2
;   baudRateOverride,250000
;   overridePrinterModels,0
;   printerModelsOverride
;   startingGcode,M999     ;reset temperature,G28 ; home all axes,G29 ; z min,
;   layerChangeGcode,
;   retractionGcode,
;   toolChangeGcode,
;   endingGcode,M104 S0 ; turn off extruder,M140 S0 ; turn off bed,G28 X0 ; home X axis,G28 Y0 ; home Y axis,M84 ; disable motors
;   exportFileFormat,gcode
;   celebration,0
;   celebrationSong,Random Song
;   postProcessing,
;   defaultSpeed,2400
;   outlineUnderspeed,0.8
;   solidInfillUnderspeed,0.8
;   supportUnderspeed,1
;   rapidXYspeed,4800
;   rapidZspeed,1000
;   minBridgingArea,8
;   bridgingExtraInflation,3
;   bridgingExtrusionMultiplier,1.2
;   bridgingSpeedMultiplier,0.6
;   filamentDiameter,1.75
;   filamentPricePerKg,19.87
;   filamentDensity,1.25
;   useMinPrintHeight,0
;   minPrintHeight,0
;   useMaxPrintHeight,0
;   maxPrintHeight,0
;   useDiaphragm,0
;   diaphragmLayerInterval,20
;   robustSlicing,1
;   mergeAllIntoSolid,0
;   onlyRetractWhenCrossingOutline,1
;   retractBetweenLayers,1
;   useRetractionMinTravel,1
;   retractionMinTravel,1.5
;   retractWhileWiping,0
;   onlyWipeOutlines,1
;   avoidCrossingOutline,0
;   maxMovementDetourFactor,3
;   toolChangeRetractionDistance,12
;   toolChangeExtraRestartDistance,-0.5
;   toolChangeRetractionSpeed,600
;   allowThinWallGapFill,0
;   thinWallAllowedOverlapPercentage,50
;   horizontalSizeCompensation,0
G90
M82
M106 S0
M140 S60
M190 S60
M104 S190 T0
M104 S190 T1
M109 S190 T0
M109 S190 T1
M999     ;reset temperature
G28 ; home all axes
G29 ; z min
G92 E0
G1 E-2.0000 F2400
G1 Z1.160 F1000
; layer 1, Z = 0.16
T1
; tool H0.200 W0.700
; skirt
G1 X34.118 Y32.703 F4800
G1 Z0.160 F1000
G1 E2.0000 F720
G92 E0
G1 X34.247 Y32.650 E0.0097 F1200
G1 X137.700 Y32.650 E7.2355
G1 X137.829 Y32.703 E7.2453
G1 X140.270 Y35.145 E7.4864
G1 X140.324 Y35.274 E7.4962
G1 X140.324 Y208.726 E19.6112
G1 X140.270 Y208.855 E19.6209
G1 X137.829 Y211.297 E19.8621
G1 X137.700 Y211.350 E19.8718
G1 X34.247 Y211.350 E27.0976
G1 X34.118 Y211.297 E27.1074
G1 X31.677 Y208.855 E27.3485
G1 X31.624 Y208.726 E27.3583
G1 X31.624 Y35.274 E39.4733
G1 X31.677 Y35.145 E39.4830
G1 X34.118 Y32.703 E39.7242
G92 E0
G1 E-2.0000 F2400
G1 Z1.160 F1000
; inner perimeter
G1 X37.024 Y38.050 F4800
G1 Z0.160 F1000
G1 E2.0000 F2400
G92 E0
G1 X134.924 Y38.050 E6.8380 F1080
G1 X134.924 Y205.950 E18.5651
G1 X37.024 Y205.950 E25.4031
G1 X37.024 Y38.050 E37.1303
; outer perimeter
G1 X36.324 Y37.350 F4800
G92 E0
G1 X135.624 Y37.350 E6.9357 F960
G1 X135.624 Y206.650 E18.7607
G1 X36.324 Y206.650 E25.6964
G1 X36.324 Y37.350 E37.5214
; inner perimeter
G1 X39.444 Y39.351 F4800
G92 E0
G1 X38.810 Y39.837 E0.0558 F1080
G1 X38.324 Y40.470 E0.1116
G1 X38.019 Y41.208 E0.1673
G1 X37.914 Y42.000 E0.2231
G1 X38.019 Y42.792 E0.2789
G1 X38.324 Y43.530 E0.3347
G1 X38.810 Y44.163 E0.3904
G1 X39.444 Y44.649 E0.4462
G1 X40.182 Y44.955 E0.5020
G1 X40.974 Y45.059 E0.5578
G1 X41.765 Y44.955 E0.6136
G1 X42.503 Y44.649 E0.6693
G1 X43.137 Y44.163 E0.7251
G1 X43.623 Y43.530 E0.7809
G1 X43.928 Y42.792 E0.8367
G1 X44.033 Y42.000 E0.8924
G1 X43.928 Y41.208 E0.9482
G1 X43.623 Y40.470 E1.0040
G1 X43.137 Y39.837 E1.0598
G1 X42.503 Y39.351 E1.1156
G1 X41.765 Y39.045 E1.1713
G1 X40.974 Y38.941 E1.2271
G1 X40.182 Y39.045 E1.2829
G1 X39.444 Y39.351 E1.3387
; outer perimeter
G1 X39.797 Y39.962 F4800
G92 E0
G1 X39.310 Y40.336 E0.0429 F960
G1 X38.936 Y40.823 E0.0858
G1 X38.701 Y41.391 E0.1287
G1 X38.621 Y42.000 E0.1716
G1 X38.701 Y42.609 E0.2145
G1 X38.936 Y43.177 E0.2574
G1 X39.310 Y43.664 E0.3003
G1 X39.797 Y44.038 E0.3432
G1 X40.365 Y44.273 E0.3861
G1 X40.974 Y44.353 E0.4290
G1 X41.583 Y44.273 E0.4719
G1 X42.150 Y44.038 E0.5148
G1 X42.637 Y43.664 E0.5578
G1 X43.011 Y43.177 E0.6007
G1 X43.246 Y42.609 E0.6436
G1 X43.327 Y42.000 E0.6865
G1 X43.246 Y41.391 E0.7294
G1 X43.011 Y40.823 E0.7723
G1 X42.637 Y40.336 E0.8152
G1 X42.150 Y39.962 E0.8581
G1 X41.583 Y39.727 E0.9010
G1 X40.974 Y39.647 E0.9439
G1 X40.365 Y39.727 E0.9868
G1 X39.797 Y39.962 E1.0297
G92 E0
G1 E-2.0000 F2400
G1 Z1.160 F1000
; inner perimeter
G1 X44.924 Y45.950 F4800
G1 Z0.160 F1000
G1 E2.0000 F2400
G92 E0
G1 X44.924 Y198.050 E10.6236 F1080
G1 X127.024 Y198.050 E16.3580
G1 X127.024 Y45.950 E26.9816
G1 X44.924 Y45.950 E32.7160
; outer perimeter
G1 X45.624 Y46.650 F4800
G92 E0
G1 X45.624 Y197.350 E10.5258 F960
G1 X126.324 Y197.350 E16.1624
G1 X126.324 Y46.650 E26.6883
G1 X45.624 Y46.650 E32.3249
; inner perimeter
G1 X40.892 Y88.942 F4800
G92 E0
G1 X40.103 Y89.067 E0.0558 F1080
G1 X39.374 Y89.393 E0.1116
G1 X38.753 Y89.896 E0.1673
G1 X38.284 Y90.542 E0.2231
G1 X37.999 Y91.288 E0.2789
G1 X37.916 Y92.082 E0.3347
G1 X38.041 Y92.871 E0.3904
G1 X38.366 Y93.600 E0.4462
G1 X38.869 Y94.220 E0.5020
G1 X39.516 Y94.689 E0.5578
G1 X40.261 Y94.975 E0.6136
G1 X41.056 Y95.058 E0.6693
G1 X41.844 Y94.933 E0.7251
G1 X42.574 Y94.607 E0.7809
G1 X43.194 Y94.104 E0.8367
G1 X43.663 Y93.458 E0.8924
G1 X43.949 Y92.712 E0.9482
G1 X44.032 Y91.918 E1.0040
G1 X43.906 Y91.129 E1.0598
G1 X43.581 Y90.400 E1.1155
G1 X43.078 Y89.780 E1.1713
G1 X42.432 Y89.311 E1.2271
G1 X41.686 Y89.025 E1.2829
G1 X40.892 Y88.942 E1.3387
; outer perimeter
G1 X40.910 Y89.648 F4800
G92 E0
G1 X40.304 Y89.744 E0.0429 F960
G1 X39.743 Y89.994 E0.0858
G1 X39.266 Y90.381 E0.1287
G1 X38.905 Y90.879 E0.1716
G1 X38.685 Y91.452 E0.2145
G1 X38.621 Y92.063 E0.2574
G1 X38.718 Y92.670 E0.3003
G1 X38.968 Y93.231 E0.3432
G1 X39.355 Y93.708 E0.3861
G1 X39.852 Y94.069 E0.4290
G1 X40.426 Y94.288 E0.4719
G1 X41.037 Y94.352 E0.5148
G1 X41.643 Y94.256 E0.5577
G1 X42.204 Y94.006 E0.6007
G1 X42.681 Y93.619 E0.6436
G1 X43.042 Y93.121 E0.6865
G1 X43.262 Y92.548 E0.7294
G1 X43.326 Y91.937 E0.7723
G1 X43.229 Y91.330 E0.8152
G1 X42.979 Y90.769 E0.8581
G1 X42.592 Y90.292 E0.9010
G1 X42.095 Y89.931 E0.9439
G1 X41.521 Y89.712 E0.9868
G1 X40.910 Y89.648 E1.0297
G92 E0
G1 E-2.0000 F2400
G1 Z1.160 F1000
; inner perimeter
G1 X41.019 Y148.941 F4800
G1 Z0.160 F1000
G1 E2.0000 F2400
G92 E0
G1 X40.226 Y149.034 E0.0558 F1080
G1 X39.484 Y149.328 E0.1116
G1 X38.843 Y149.805 E0.1673
G1 X38.347 Y150.431 E0.2231
G1 X38.031 Y151.164 E0.2789
G1 X37.915 Y151.954 E0.3347
G1 X38.007 Y152.748 E0.3904
G1 X38.302 Y153.490 E0.4462
G1 X38.778 Y154.131 E0.5020
G1 X39.405 Y154.626 E0.5578
G1 X40.138 Y154.943 E0.6136
G1 X40.928 Y155.059 E0.6693
G1 X41.721 Y154.966 E0.7251
G1 X42.463 Y154.672 E0.7809
G1 X43.104 Y154.195 E0.8367
G1 X43.600 Y153.569 E0.8924
G1 X43.916 Y152.836 E0.9482
G1 X44.032 Y152.046 E1.0040
G1 X43.940 Y151.252 E1.0598
G1 X43.645 Y150.510 E1.1155
G1 X43.169 Y149.869 E1.1713
G1 X42.542 Y149.374 E1.2271
G1 X41.809 Y149.057 E1.2829
G1 X41.019 Y148.941 E1.3387
; outer perimeter
G1 X41.009 Y149.647 F4800
G92 E0
G1 X40.399 Y149.718 E0.0429 F960
G1 X39.828 Y149.945 E0.0858
G1 X39.335 Y150.312 E0.1287
G1 X38.954 Y150.793 E0.1716
G1 X38.710 Y151.357 E0.2145
G1 X38.621 Y151.965 E0.2574
G1 X38.692 Y152.575 E0.3003
G1 X38.918 Y153.146 E0.3432
G1 X39.285 Y153.639 E0.3861
G1 X39.767 Y154.020 E0.4290
G1 X40.331 Y154.263 E0.4719
G1 X40.938 Y154.353 E0.5148
G1 X41.549 Y154.282 E0.5578
G1 X42.120 Y154.055 E0.6007
G1 X42.612 Y153.688 E0.6436
G1 X42.994 Y153.207 E0.6865
G1 X43.237 Y152.643 E0.7294
G1 X43.326 Y152.035 E0.7723
G1 X43.255 Y151.425 E0.8152
G1 X43.029 Y150.854 E0.8581
G1 X42.662 Y150.361 E0.9010
G1 X42.180 Y149.980 E0.9439
G1 X41.616 Y149.736 E0.9868
G1 X41.009 Y149.647 E1.0297
G92 E0
G1 E-2.0000 F2400
G1 Z1.160 F1000
; inner perimeter
G1 X40.954 Y198.941 F4800
G1 Z0.160 F1000
G1 E2.0000 F2400
G92 E0
G1 X40.163 Y199.050 E0.0558 F1080
G1 X39.427 Y199.361 E0.1116
G1 X38.797 Y199.851 E0.1673
G1 X38.315 Y200.487 E0.2231
G1 X38.014 Y201.227 E0.2789
G1 X37.915 Y202.019 E0.3347
G1 X38.024 Y202.810 E0.3904
G1 X38.334 Y203.546 E0.4462
G1 X38.824 Y204.177 E0.5020
G1 X39.461 Y204.659 E0.5578
G1 X40.201 Y204.960 E0.6136
G1 X40.993 Y205.059 E0.6693
G1 X41.784 Y204.950 E0.7251
G1 X42.520 Y204.639 E0.7809
G1 X43.150 Y204.149 E0.8367
G1 X43.632 Y203.513 E0.8924
G1 X43.933 Y202.773 E0.9482
G1 X44.033 Y201.981 E1.0040
G1 X43.923 Y201.190 E1.0598
G1 X43.613 Y200.454 E1.1155
G1 X43.123 Y199.823 E1.1713
G1 X42.486 Y199.341 E1.2271
G1 X41.747 Y199.040 E1.2829
G1 X40.954 Y198.941 E1.3387
; outer perimeter
G1 X40.959 Y199.647 F4800
G92 E0
G1 X40.350 Y199.731 E0.0429 F960
G1 X39.784 Y199.970 E0.0858
G1 X39.299 Y200.347 E0.1287
G1 X38.928 Y200.836 E0.1716
G1 X38.697 Y201.405 E0.2145
G1 X38.621 Y202.015 E0.2574
G1 X38.705 Y202.623 E0.3003
G1 X38.943 Y203.189 E0.3432
G1 X39.320 Y203.674 E0.3861
G1 X39.810 Y204.045 E0.4290
G1 X40.379 Y204.277 E0.4719
G1 X40.988 Y204.353 E0.5148
G1 X41.597 Y204.269 E0.5578
G1 X42.163 Y204.030 E0.6007
G1 X42.648 Y203.653 E0.6436
G1 X43.019 Y203.164 E0.6865
G1 X43.250 Y202.595 E0.7294
G1 X43.327 Y201.985 E0.7723
G1 X43.242 Y201.377 E0.8152
G1 X43.004 Y200.811 E0.8581
G1 X42.627 Y200.326 E0.9010
G1 X42.137 Y199.955 E0.9439
G1 X41.568 Y199.723 E0.9868
G1 X40.959 Y199.647 E1.0297
; inner perimeter
G1 X129.445 Y199.350 F4800
G92 E0
G1 X128.811 Y199.836 E0.0558 F1080
G1 X128.325 Y200.470 E0.1116
G1 X128.019 Y201.208 E0.1673
G1 X127.914 Y201.999 E0.2231
G1 X128.019 Y202.791 E0.2789
G1 X128.324 Y203.529 E0.3347
G1 X128.810 Y204.163 E0.3904
G1 X129.443 Y204.649 E0.4462
G1 X130.181 Y204.955 E0.5020
G1 X130.973 Y205.059 E0.5578
G1 X131.765 Y204.955 E0.6136
G1 X132.502 Y204.650 E0.6693
G1 X133.136 Y204.164 E0.7251
G1 X133.622 Y203.530 E0.7809
G1 X133.928 Y202.792 E0.8367
G1 X134.033 Y202.001 E0.8924
G1 X133.929 Y201.209 E0.9482
G1 X133.623 Y200.471 E1.0040
G1 X133.137 Y199.837 E1.0598
G1 X132.504 Y199.351 E1.1155
G1 X131.766 Y199.045 E1.1713
G1 X130.974 Y198.941 E1.2271
G1 X130.183 Y199.045 E1.2829
G1 X129.445 Y199.350 E1.3387
; outer perimeter
G1 X129.798 Y199.962 F4800
G92 E0
G1 X129.310 Y200.336 E0.0429 F960
G1 X128.936 Y200.823 E0.0858
G1 X128.701 Y201.390 E0.1287
G1 X128.621 Y201.999 E0.1716
G1 X128.701 Y202.608 E0.2145
G1 X128.935 Y203.176 E0.2574
G1 X129.309 Y203.663 E0.3003
G1 X129.797 Y204.037 E0.3432
G1 X130.364 Y204.273 E0.3861
G1 X130.973 Y204.353 E0.4290
G1 X131.582 Y204.273 E0.4719
G1 X132.150 Y204.038 E0.5148
G1 X132.637 Y203.664 E0.5578
G1 X133.011 Y203.177 E0.6007
G1 X133.246 Y202.610 E0.6436
G1 X133.327 Y202.001 E0.6865
G1 X133.247 Y201.392 E0.7294
G1 X133.012 Y200.824 E0.7723
G1 X132.638 Y200.337 E0.8152
G1 X132.151 Y199.963 E0.8581
G1 X131.583 Y199.727 E0.9010
G1 X130.974 Y199.647 E0.9439
G1 X130.365 Y199.727 E0.9868
G1 X129.798 Y199.962 E1.0297
; inner perimeter
G1 X128.868 Y149.781 F4800
G92 E0
G1 X128.365 Y150.402 E0.0558 F1080
G1 X128.040 Y151.131 E0.1116
G1 X127.916 Y151.920 E0.1673
G1 X127.999 Y152.714 E0.2231
G1 X128.285 Y153.460 E0.2789
G1 X128.755 Y154.106 E0.3347
G1 X129.375 Y154.608 E0.3904
G1 X130.105 Y154.933 E0.4462
G1 X130.893 Y155.058 E0.5020
G1 X131.688 Y154.975 E0.5578
G1 X132.433 Y154.688 E0.6136
G1 X133.079 Y154.219 E0.6693
G1 X133.582 Y153.598 E0.7251
G1 X133.907 Y152.869 E0.7809
G1 X134.032 Y152.080 E0.8367
G1 X133.948 Y151.286 E0.8924
G1 X133.662 Y150.540 E0.9482
G1 X133.193 Y149.894 E1.0040
G1 X132.572 Y149.392 E1.0598
G1 X131.842 Y149.067 E1.1155
G1 X131.054 Y148.942 E1.1713
G1 X130.260 Y149.025 E1.2271
G1 X129.514 Y149.312 E1.2829
G1 X128.868 Y149.781 E1.3387
; outer perimeter
G1 X129.354 Y150.293 F4800
G92 E0
G1 X128.967 Y150.770 E0.0429 F960
G1 X128.717 Y151.332 E0.0858
G1 X128.621 Y151.938 E0.1287
G1 X128.686 Y152.549 E0.1716
G1 X128.906 Y153.123 E0.2145
G1 X129.267 Y153.620 E0.2574
G1 X129.744 Y154.006 E0.3003
G1 X130.305 Y154.256 E0.3432
G1 X130.912 Y154.352 E0.3861
G1 X131.523 Y154.288 E0.4290
G1 X132.096 Y154.068 E0.4719
G1 X132.593 Y153.707 E0.5148
G1 X132.980 Y153.230 E0.5578
G1 X133.230 Y152.668 E0.6007
