; G-Code generated by Simplify3D(R) Version 3.1.1
; nov. 12, 2016 at 12:11:46 
; Settings Summary
;   processName,Process1
;   applyToModels,Push button
;   profileName,0.8mm fine (modified)
;   profileVersion,2016-11-05 10:39:04
;   baseProfile,Default
;   printMaterial,PLA
;   printQuality,High
;   printExtruders,
;   extruderName,Left extruder,Right extruder
;   extruderToolheadNumber,0,1
;   extruderDiameter,0.4,0.8
;   extruderAutoWidth,0,0
;   extruderWidth,0.3,0.7
;   extrusionMultiplier,1.2,1.2
;   extruderUseRetract,1,1
;   extruderRetractionDistance,2,2
;   extruderExtraRestartDistance,2,2
;   extruderRetractionZLift,1,1
;   extruderRetractionSpeed,2400,2400
;   extruderUseCoasting,0,0
;   extruderCoastingDistance,0.2,0.2
;   extruderUseWipe,0,0
;   extruderWipeDistance,5,5
;   primaryExtruder,1
;   layerHeight,0.2
;   topSolidLayers,3
;   bottomSolidLayers,3
;   perimeterOutlines,2
;   printPerimetersInsideOut,1
;   startPointOption,2
;   startPointOriginX,0
;   startPointOriginY,0
;   startPointOriginZ,300
;   sequentialIslands,0
;   spiralVaseMode,0
;   firstLayerHeightPercentage,80
;   firstLayerWidthPercentage,100
;   firstLayerUnderspeed,0.5
;   useRaft,0
;   raftExtruder,0
;   raftLayers,2
;   raftOffset,3
;   raftSeparationDistance,0.14
;   raftInfill,85
;   disableRaftBaseLayers,0
;   useSkirt,1
;   skirtExtruder,1
;   skirtLayers,1
;   skirtOutlines,1
;   skirtOffset,4
;   usePrimePillar,0
;   primePillarExtruder,999
;   primePillarWidth,12
;   primePillarLocation,7
;   primePillarSpeedMultiplier,1
;   useOozeShield,0
;   oozeShieldExtruder,999
;   oozeShieldOffset,2
;   oozeShieldOutlines,1
;   oozeShieldSidewallShape,1
;   oozeShieldSidewallAngle,30
;   oozeShieldSpeedMultiplier,1
;   infillExtruder,1
;   internalInfillPattern,Rectilinear
;   externalInfillPattern,Rectilinear
;   infillPercentage,33
;   outlineOverlapPercentage,30
;   infillExtrusionWidthPercentage,100
;   minInfillLength,5
;   infillLayerInterval,1
;   infillAngles,45,-45
;   overlapInfillAngles,0
;   generateSupport,0
;   supportExtruder,1
;   supportInfillPercentage,40
;   supportExtraInflation,0
;   denseSupportLayers,0
;   denseSupportInfillPercentage,70
;   supportLayerInterval,1
;   supportHorizontalPartOffset,0.3
;   supportUpperSeparationLayers,1
;   supportLowerSeparationLayers,1
;   supportType,0
;   supportGridSpacing,3
;   maxOverhangAngle,45
;   supportAngles,45
;   temperatureName,Extruder 1 Temperature,Extruder 2 Temperature,Heated Bed
;   temperatureNumber,0,1,0
;   temperatureSetpointCount,1,1,1
;   temperatureSetpointLayers,1,1,1
;   temperatureSetpointTemperatures,190,190,60
;   temperatureStabilizeAtStartup,1,1,1
;   temperatureHeatedBed,0,0,1
;   temperatureRelayBetweenLayers,0,0,0
;   temperatureRelayBetweenLoops,0,0,0
;   fanLayers,1,2
;   fanSpeeds,0,100
;   blipFanToFullPower,0
;   adjustSpeedForCooling,0
;   minSpeedLayerTime,15
;   minCoolingSpeedSlowdown,20
;   increaseFanForCooling,0
;   minFanLayerTime,45
;   maxCoolingFanSpeed,100
;   increaseFanForBridging,0
;   bridgingFanSpeed,100
;   use5D,1
;   relativeEdistances,0
;   allowEaxisZeroing,1
;   independentExtruderAxes,0
;   includeM10123,0
;   stickySupport,1
;   applyToolheadOffsets,0
;   gcodeXoffset,0
;   gcodeYoffset,0
;   gcodeZoffset,0
;   overrideMachineDefinition,1
;   machineTypeOverride,0
;   strokeXoverride,220
;   strokeYoverride,200
;   strokeZoverride,150
;   originOffsetXoverride,24
;   originOffsetYoverride,-22
;   originOffsetZoverride,0
;   homeXdirOverride,-1
;   homeYdirOverride,-1
;   homeZdirOverride,1
;   flipXoverride,1
;   flipYoverride,-1
;   flipZoverride,1
;   toolheadOffsets,-27,0|28,22|0,0|0,0|0,0|0,0
;   overrideFirmwareConfiguration,1
;   firmwareTypeOverride,RepRap (Marlin/Repetier/Sprinter)
;   GPXconfigOverride,r2
;   baudRateOverride,250000
;   overridePrinterModels,0
;   printerModelsOverride
;   startingGcode,M999     ;reset temperature,G28 ; home all axes,G29 ; z min,
;   layerChangeGcode,
;   retractionGcode,
;   toolChangeGcode,
;   endingGcode,M104 S0 ; turn off extruder,M140 S0 ; turn off bed,G28 X0 ; home X axis,G28 Y0 ; home Y axis,M84 ; disable motors
;   exportFileFormat,gcode
;   celebration,0
;   celebrationSong,Random Song
;   postProcessing,
;   defaultSpeed,2400
;   outlineUnderspeed,0.8
;   solidInfillUnderspeed,0.8
;   supportUnderspeed,1
;   rapidXYspeed,4800
;   rapidZspeed,1000
;   minBridgingArea,8
;   bridgingExtraInflation,3
;   bridgingExtrusionMultiplier,1.2
;   bridgingSpeedMultiplier,0.6
;   filamentDiameter,1.75
;   filamentPricePerKg,19.87
;   filamentDensity,1.25
;   useMinPrintHeight,0
;   minPrintHeight,0
;   useMaxPrintHeight,0
;   maxPrintHeight,0
;   useDiaphragm,0
;   diaphragmLayerInterval,20
;   robustSlicing,1
;   mergeAllIntoSolid,0
;   onlyRetractWhenCrossingOutline,1
;   retractBetweenLayers,1
;   useRetractionMinTravel,1
;   retractionMinTravel,1.5
;   retractWhileWiping,0
;   onlyWipeOutlines,1
;   avoidCrossingOutline,0
;   maxMovementDetourFactor,3
;   toolChangeRetractionDistance,12
;   toolChangeExtraRestartDistance,-0.5
;   toolChangeRetractionSpeed,600
;   allowThinWallGapFill,0
;   thinWallAllowedOverlapPercentage,50
;   horizontalSizeCompensation,0
G90
M82
M106 S0
M140 S60
M190 S60
M104 S190 T0
M104 S190 T1
M109 S190 T0
M109 S190 T1
M999     ;reset temperature
G28 ; home all axes
G29 ; z min
G92 E0
G1 E-2.0000 F2400
G1 Z1.160 F1000
; layer 1, Z = 0.16
T1
; tool H0.200 W0.700
; skirt
G1 X42.774 Y78.204 F4800
G1 Z0.160 F1000
G1 E2.0000 F720
G92 E0
G1 X42.903 Y78.151 E0.0097 F1200
G1 X49.357 Y78.151 E0.4606
G1 X49.486 Y78.204 E0.4703
G1 X51.928 Y80.646 E0.7115
G1 X51.981 Y80.775 E0.7212
G1 X51.981 Y93.627 E1.6189
G1 X51.928 Y93.756 E1.6287
G1 X51.484 Y94.200 E1.6725
G1 X51.928 Y94.644 E1.7164
G1 X51.981 Y94.773 E1.7261
G1 X51.981 Y111.725 E2.9102
G1 X51.928 Y111.854 E2.9199
G1 X49.486 Y114.296 E3.1611
G1 X49.357 Y114.349 E3.1708
G1 X42.903 Y114.349 E3.6217
G1 X42.774 Y114.296 E3.6314
G1 X40.332 Y111.854 E3.8726
G1 X40.279 Y111.725 E3.8823
G1 X40.279 Y94.773 E5.0664
G1 X40.332 Y94.644 E5.0761
G1 X40.477 Y94.499 E5.0904
G1 X40.332 Y94.354 E5.1047
G1 X40.279 Y94.225 E5.1145
G1 X40.279 Y80.775 E6.0540
G1 X40.332 Y80.646 E6.0637
G1 X42.774 Y78.204 E6.3049
G1 X70.171 Y91.884 F4800
G92 E0
G1 X70.446 Y91.410 E0.0383 F1200
G1 X70.458 Y91.390 E0.0399
G1 X72.699 Y88.473 E0.2968
G1 X72.714 Y88.456 E0.2984
G1 X73.100 Y88.070 E0.3365
G1 X73.117 Y88.055 E0.3381
G1 X76.035 Y85.814 E0.5951
G1 X76.054 Y85.801 E0.5967
G1 X76.529 Y85.527 E0.6350
G1 X76.550 Y85.517 E0.6366
G1 X79.949 Y84.109 E0.8936
G1 X79.971 Y84.102 E0.8952
G1 X80.499 Y83.961 E0.9334
G1 X80.521 Y83.956 E0.9350
G1 X84.170 Y83.475 E1.1920
G1 X84.193 Y83.473 E1.1936
G1 X84.741 Y83.473 E1.2319
G1 X84.764 Y83.475 E1.2336
G1 X88.413 Y83.956 E1.4906
G1 X88.435 Y83.961 E1.4922
G1 X88.963 Y84.102 E1.5303
G1 X88.984 Y84.109 E1.5319
G1 X92.384 Y85.517 E1.7889
G1 X92.405 Y85.527 E1.7905
G1 X92.879 Y85.801 E1.8288
G1 X92.898 Y85.813 E1.8304
G1 X95.818 Y88.055 E2.0875
G1 X95.836 Y88.070 E2.0891
G1 X96.222 Y88.457 E2.1273
G1 X96.238 Y88.474 E2.1289
G1 X98.477 Y91.392 E2.3858
G1 X98.489 Y91.411 E2.3874
G1 X98.763 Y91.885 E2.4256
G1 X98.773 Y91.905 E2.4272
G1 X98.866 Y92.130 E2.4442
G1 X98.978 Y92.116 E2.4521
G1 X99.022 Y92.116 E2.4552
G1 X100.056 Y92.245 E2.5280
G1 X100.099 Y92.256 E2.5310
G1 X103.072 Y93.419 E2.7540
G1 X103.148 Y93.476 E2.7607
G1 X104.559 Y95.296 E2.9215
G1 X104.595 Y95.384 E2.9281
G1 X105.072 Y99.318 E3.2049
G1 X105.058 Y99.412 E3.2115
G1 X104.123 Y101.517 E3.3724
G1 X104.063 Y101.590 E3.3790
G1 X103.323 Y102.112 E3.4423
G1 X103.918 Y102.798 E3.5058
G1 X103.958 Y102.884 E3.5124
G1 X104.361 Y105.152 E3.6733
G1 X104.353 Y105.246 E3.6799
G1 X102.945 Y108.953 E3.9569
G1 X102.889 Y109.030 E3.9635
G1 X101.083 Y110.459 E4.1243
G1 X100.996 Y110.496 E4.1310
G1 X100.097 Y110.614 E4.1943
G1 X100.305 Y111.498 E4.2577
G1 X100.301 Y111.593 E4.2643
G1 X99.605 Y113.787 E4.4251
G1 X99.553 Y113.866 E4.4317
G1 X96.587 Y116.493 E4.7084
G1 X96.502 Y116.534 E4.7150
G1 X94.240 Y116.961 E4.8758
G1 X94.145 Y116.953 E4.8825
G1 X93.295 Y116.641 E4.9457
G1 X93.069 Y117.520 E5.0091
G1 X93.022 Y117.602 E5.0157
G1 X91.382 Y119.225 E5.1768
G1 X91.300 Y119.271 E5.1835
G1 X87.448 Y120.216 E5.4605
G1 X87.354 Y120.213 E5.4671
G1 X85.154 Y119.539 E5.6278
G1 X85.074 Y119.488 E5.6344
G1 X84.467 Y118.817 E5.6976
G1 X83.860 Y119.488 E5.7608
G1 X83.780 Y119.539 E5.7674
G1 X81.580 Y120.213 E5.9282
G1 X81.485 Y120.216 E5.9348
G1 X77.637 Y119.271 E6.2116
G1 X77.554 Y119.224 E6.2182
G1 X75.916 Y117.605 E6.3790
G1 X75.869 Y117.523 E6.3857
G1 X75.641 Y116.640 E6.4494
G1 X74.789 Y116.953 E6.5128
G1 X74.694 Y116.961 E6.5194
G1 X72.432 Y116.534 E6.6802
G1 X72.347 Y116.493 E6.6868
G1 X69.381 Y113.866 E6.9635
G1 X69.329 Y113.787 E6.9702
G1 X68.633 Y111.593 E7.1310
G1 X68.629 Y111.498 E7.1376
G1 X68.837 Y110.614 E7.2010
G1 X67.937 Y110.496 E7.2644
G1 X67.850 Y110.459 E7.2710
G1 X66.042 Y109.027 E7.4320
G1 X65.986 Y108.951 E7.4387
G1 X64.584 Y105.243 E7.7155
G1 X64.575 Y105.149 E7.7221
G1 X64.977 Y102.886 E7.8827
G1 X65.018 Y102.800 E7.8893
G1 X67.104 Y100.391 E8.1119
G1 X67.136 Y100.362 E8.1149
G1 X67.987 Y99.768 E8.1874
G1 X68.026 Y99.748 E8.1904
G1 X68.117 Y99.713 E8.1973
G1 X68.117 Y99.551 E8.2085
G1 X68.118 Y99.528 E8.2101
G1 X68.598 Y95.880 E8.4671
G1 X68.602 Y95.858 E8.4687
G1 X68.744 Y95.329 E8.5070
G1 X68.751 Y95.307 E8.5086
G1 X70.161 Y91.905 E8.7658
G1 X70.171 Y91.884 E8.7674
G1 X42.903 Y122.451 F4800
G92 E0
G1 X130.625 Y122.451 E6.1271 F1200
G1 X130.754 Y122.504 E6.1368
G1 X133.196 Y124.946 E6.3780
G1 X133.249 Y125.075 E6.3877
G1 X133.249 Y136.025 E7.1526
G1 X133.196 Y136.154 E7.1624
G1 X130.754 Y138.596 E7.4035
G1 X130.625 Y138.649 E7.4133
G1 X42.903 Y138.649 E13.5404
G1 X42.774 Y138.596 E13.5501
G1 X40.332 Y136.154 E13.7913
G1 X40.279 Y136.025 E13.8010
G1 X40.279 Y125.075 E14.5659
G1 X40.332 Y124.946 E14.5756
G1 X42.774 Y122.504 E14.8168
G1 X42.903 Y122.451 E14.8265
G1 X34.275 Y143.651 F4800
G92 E0
G1 X137.725 Y143.651 E7.2257 F1200
G1 X137.854 Y143.704 E7.2354
G1 X140.296 Y146.146 E7.4766
G1 X140.349 Y146.275 E7.4863
G1 X140.349 Y163.225 E8.6702
G1 X140.296 Y163.354 E8.6800
G1 X137.854 Y165.796 E8.9212
G1 X137.725 Y165.849 E8.9309
G1 X34.275 Y165.849 E16.1565
G1 X34.146 Y165.796 E16.1663
G1 X31.704 Y163.354 E16.4074
G1 X31.651 Y163.225 E16.4172
G1 X31.651 Y146.275 E17.6011
G1 X31.704 Y146.146 E17.6109
G1 X34.146 Y143.704 E17.8520
G1 X34.275 Y143.651 E17.8618
G92 E0
G1 E-2.0000 F2400
G1 Z1.160 F1000
; inner perimeter
G1 X37.051 Y149.051 F4800
G1 Z0.160 F1000
G1 E2.0000 F2400
G92 E0
G1 X134.949 Y149.051 E6.8378 F1080
G1 X134.949 Y160.449 E7.6339
G1 X37.051 Y160.449 E14.4717
G1 X37.051 Y149.051 E15.2678
; outer perimeter
G1 X36.351 Y148.351 F4800
G92 E0
G1 X135.649 Y148.351 E6.9356 F960
G1 X135.649 Y161.149 E7.8295
G1 X36.351 Y161.149 E14.7651
G1 X36.351 Y148.351 E15.6590
; solid layer
G1 X37.833 Y159.959 F4800
G92 E0
G1 X37.541 Y159.667 E0.0289 F960
G1 X37.541 Y158.677 E0.0980
G1 X38.823 Y159.959 E0.2247
G1 X39.813 Y159.959 E0.2938
G1 X37.541 Y157.687 E0.5183
G1 X37.541 Y156.697 E0.5874
G1 X40.803 Y159.959 E0.9097
G1 X41.793 Y159.959 E0.9788
G1 X37.541 Y155.707 E1.3988
G1 X37.541 Y154.717 E1.4680
G1 X42.783 Y159.959 E1.9858
G1 X43.773 Y159.959 E2.0549
G1 X37.541 Y153.727 E2.6705
G1 X37.541 Y152.737 E2.7397
G1 X44.763 Y159.959 E3.4530
G1 X45.753 Y159.959 E3.5222
G1 X37.541 Y151.747 E4.3333
G1 X37.541 Y150.757 E4.4025
G1 X46.743 Y159.959 E5.3114
G1 X47.733 Y159.959 E5.3806
G1 X37.541 Y149.767 E6.3873
G1 X37.541 Y149.541 E6.4031
G1 X38.305 Y149.541 E6.4565
G1 X48.723 Y159.959 E7.4855
G1 X49.713 Y159.959 E7.5547
G1 X39.295 Y149.541 E8.5837
G1 X40.285 Y149.541 E8.6529
G1 X50.703 Y159.959 E9.6819
G1 X51.693 Y159.959 E9.7511
G1 X41.275 Y149.541 E10.7801
G1 X42.265 Y149.541 E10.8493
G1 X52.683 Y159.959 E11.8783
G1 X53.673 Y159.959 E11.9475
G1 X43.255 Y149.541 E12.9766
G1 X44.245 Y149.541 E13.0457
G1 X54.663 Y159.959 E14.0748
G1 X55.652 Y159.959 E14.1439
G1 X45.234 Y149.541 E15.1730
G1 X46.224 Y149.541 E15.2421
G1 X56.642 Y159.959 E16.2712
G1 X57.632 Y159.959 E16.3403
G1 X47.214 Y149.541 E17.3694
G1 X48.204 Y149.541 E17.4385
G1 X58.622 Y159.959 E18.4676
G1 X59.612 Y159.959 E18.5367
G1 X49.194 Y149.541 E19.5658
G1 X50.184 Y149.541 E19.6349
G1 X60.602 Y159.959 E20.6640
G1 X61.592 Y159.959 E20.7331
G1 X51.174 Y149.541 E21.7622
G1 X52.164 Y149.541 E21.8314
G1 X62.582 Y159.959 E22.8604
G1 X63.572 Y159.959 E22.9296
G1 X53.154 Y149.541 E23.9586
G1 X54.144 Y149.541 E24.0278
G1 X64.562 Y159.959 E25.0568
G1 X65.552 Y159.959 E25.1260
G1 X55.134 Y149.541 E26.1550
G1 X56.124 Y149.541 E26.2242
G1 X66.542 Y159.959 E27.2532
G1 X67.532 Y159.959 E27.3224
G1 X57.114 Y149.541 E28.3515
G1 X58.104 Y149.541 E28.4206
G1 X68.522 Y159.959 E29.4497
G1 X69.512 Y159.959 E29.5188
G1 X59.094 Y149.541 E30.5479
G1 X60.084 Y149.541 E30.6170
G1 X70.502 Y159.959 E31.6461
G1 X71.492 Y159.959 E31.7152
G1 X61.074 Y149.541 E32.7443
G1 X62.064 Y149.541 E32.8134
G1 X72.482 Y159.959 E33.8425
G1 X73.472 Y159.959 E33.9116
G1 X63.054 Y149.541 E34.9407
G1 X64.044 Y149.541 E35.0098
G1 X74.462 Y159.959 E36.0389
G1 X75.451 Y159.959 E36.1080
G1 X65.033 Y149.541 E37.1371
G1 X66.023 Y149.541 E37.2063
G1 X76.441 Y159.959 E38.2353
G1 X77.431 Y159.959 E38.3045
G1 X67.013 Y149.541 E39.3335
G1 X68.003 Y149.541 E39.4027
G1 X78.421 Y159.959 E40.4317
G1 X79.411 Y159.959 E40.5009
G1 X68.993 Y149.541 E41.5299
G1 X69.983 Y149.541 E41.5991
G1 X80.401 Y159.959 E42.6281
G1 X81.391 Y159.959 E42.6973
G1 X70.973 Y149.541 E43.7264
G1 X71.963 Y149.541 E43.7955
G1 X82.381 Y159.959 E44.8246
G1 X83.371 Y159.959 E44.8937
G1 X72.953 Y149.541 E45.9228
G1 X73.943 Y149.541 E45.9919
G1 X84.361 Y159.959 E47.0210
G1 X85.351 Y159.959 E47.0901
G1 X74.933 Y149.541 E48.1192
G1 X75.923 Y149.541 E48.1883
G1 X86.341 Y159.959 E49.2174
G1 X87.331 Y159.959 E49.2865
G1 X76.913 Y149.541 E50.3156
G1 X77.903 Y149.541 E50.3847
G1 X88.321 Y159.959 E51.4138
G1 X89.311 Y159.959 E51.4829
G1 X78.893 Y149.541 E52.5120
G1 X79.883 Y149.541 E52.5812
G1 X90.301 Y159.959 E53.6102
G1 X91.291 Y159.959 E53.6794
G1 X80.873 Y149.541 E54.7084
G1 X81.863 Y149.541 E54.7776
G1 X92.281 Y159.959 E55.8066
G1 X93.271 Y159.959 E55.8758
G1 X82.853 Y149.541 E56.9048
G1 X83.843 Y149.541 E56.9740
G1 X94.261 Y159.959 E58.0030
G1 X95.250 Y159.959 E58.0722
G1 X84.832 Y149.541 E59.1012
G1 X85.822 Y149.541 E59.1704
G1 X96.240 Y159.959 E60.1995
G1 X97.230 Y159.959 E60.2686
G1 X86.812 Y149.541 E61.2977
G1 X87.802 Y149.541 E61.3668
G1 X98.220 Y159.959 E62.3959
G1 X99.210 Y159.959 E62.4650
G1 X88.792 Y149.541 E63.4941
G1 X89.782 Y149.541 E63.5632
G1 X100.200 Y159.959 E64.5923
G1 X101.190 Y159.959 E64.6614
G1 X90.772 Y149.541 E65.6905
G1 X91.762 Y149.541 E65.7596
G1 X102.180 Y159.959 E66.7887
G1 X103.170 Y159.959 E66.8578
G1 X92.752 Y149.541 E67.8869
G1 X93.742 Y149.541 E67.9560
G1 X104.160 Y159.959 E68.9851
G1 X105.150 Y159.959 E69.0543
G1 X94.732 Y149.541 E70.0833
G1 X95.722 Y149.541 E70.1525
G1 X106.140 Y159.959 E71.1815
G1 X107.130 Y159.959 E71.2507
G1 X96.712 Y149.541 E72.2797
G1 X97.702 Y149.541 E72.3489
G1 X108.120 Y159.959 E73.3779
G1 X109.110 Y159.959 E73.4471
G1 X98.692 Y149.541 E74.4761
G1 X99.682 Y149.541 E74.5453
G1 X110.100 Y159.959 E75.5744
G1 X111.090 Y159.959 E75.6435
G1 X100.672 Y149.541 E76.6726
G1 X101.662 Y149.541 E76.7417
G1 X112.080 Y159.959 E77.7708
G1 X113.070 Y159.959 E77.8399
G1 X102.652 Y149.541 E78.8690
G1 X103.642 Y149.541 E78.9381
G1 X114.059 Y159.959 E79.9672
